!!!OTL: "Dem Nebenbuhler" MUSCHT MIR NICHTS NI UEBEL AUFA NEHMA
!!!ARE: Europa, Mitteleuropa, Tirol
!!!SCT: Z1221
!!!YEM: Copyright 1995, estate of Helmut Schaffrath.
**kern
*ICvox
*Ivox
*M3/4
*k[b-]
*F:
{8a
8b-
=1
4.cc
8ff
8ee
8dd
=2
8dd
8cc
8cc
8cc}
{8a
8a
=3
8cc
8b-
8b-
8b-
8g
8g
=4
8dd
8cc
8cc
8cc}
{8a
8b-
=5
4.cc
8ff
8ee
8dd
=6
8dd
8cc
4cc}
{8a
8cc
=7
8cc
8b-
8dd
8b-
8g
8e
=8
4f
4r}
{8a
8cc
=9
8cc
8b-
4b-
8.g
16ee
=10
4ff
4cc}
{8.a
16cc
=11
8cc
8b-
4b-
8.g
16ee
=12
4ff
4cc}
{8a
8b-
=13
4.cc
8ff
8ee
8dd
=14
8dd
8cc
4cc}
{8a
8cc
=15
8cc
8b-
8dd
8b-
8g
8e
=16
4f
4r}
==
!!!AGN: Liebes - Lied
!!!ONB: ESAC (Essen Associative Code) Database: ZUCCAL
!!!AMT: simple triple
!!!AIN: vox
!!!EED: Helmut Schaffrath
!!!EEV: 1.0
*-
